svg/fluentui-system-icons/ic_fluent_clipboard_checkmark_24_filled.svg

<svg width="24" height="24" viewBox="0 0 24 24" fill="none" xmlns="http://www.w3.org/2000/svg">
<path d="M10.25 2H13.75C14.9079 2 15.8616 2.87472 15.9862 3.99944L17.75 4C18.9926 4 20 5.00736 20 6.25V11.4982C19.2304 11.1772 18.3859 11 17.5 11C13.9101 11 11 13.9101 11 17.5C11 19.2465 11.6888 20.8321 12.8096 22H6.25C5.00736 22 4 20.9926 4 19.75V6.25C4 5.00736 5.00736 4 6.25 4L8.01379 3.99944C8.13841 2.87472 9.09205 2 10.25 2ZM13.75 3.5H10.25C9.83579 3.5 9.5 3.83579 9.5 4.25C9.5 4.66421 9.83579 5 10.25 5H13.75C14.1642 5 14.5 4.66421 14.5 4.25C14.5 3.83579 14.1642 3.5 13.75 3.5ZM23 17.5C23 20.5376 20.5376 23 17.5 23C14.4624 23 12 20.5376 12 17.5C12 14.4624 14.4624 12 17.5 12C20.5376 12 23 14.4624 23 17.5ZM20.8536 15.1464C20.6583 14.9512 20.3417 14.9512 20.1464 15.1464L16.5 18.7929L14.8536 17.1464C14.6583 16.9512 14.3417 16.9512 14.1464 17.1464C13.9512 17.3417 13.9512 17.6583 14.1464 17.8536L16.1464 19.8536C16.3417 20.0488 16.6583 20.0488 16.8536 19.8536L20.8536 15.8536C21.0488 15.6583 21.0488 15.3417 20.8536 15.1464Z" fill="#212121"/>
</svg>

<svg xmlns="http://www.w3.org/2000/svg" width="24" height="24"><path d="M10.25 2h3.5a2.25 2.25 0 0 1 2.236 2h1.764A2.25 2.25 0 0 1 20 6.25v5.248A6.5 6.5 0 0 0 12.81 22H6.25A2.25 2.25 0 0 1 4 19.75V6.25A2.25 2.25 0 0 1 6.25 4h1.764a2.25 2.25 0 0 1 2.236-2Zm3.5 1.5h-3.5a.75.75 0 0 0 0 1.5h3.5a.75.75 0 0 0 0-1.5Zm9.25 14a5.5 5.5 0 1 1-11 0 5.5 5.5 0 0 1 11 0Zm-2.146-2.354a.5.5 0 0 0-.708 0L16.5 18.793l-1.646-1.647a.5.5 0 0 0-.708.708l2 2a.5.5 0 0 0 .708 0l4-4a.5.5 0 0 0 0-.708Z"/></svg>
